modules/themify-icons/icons/bell.svg

<?xml version="1.0" encoding="utf-8"?>
<!-- Generated by IcoMoon.io -->
<!DOCTYPE svg PUBLIC "-//W3C//DTD SVG 1.1//EN" "http://www.w3.org/Graphics/SVG/1.1/DTD/svg11.dtd">
<svg version="1.1" xmlns="http://www.w3.org/2000/svg" xmlns:xlink="http://www.w3.org/1999/xlink" width="17" height="17" viewBox="0 0 17 17">
<g>
</g>
	<path d="M15.312 14.125c-0.014-0.013-1.312-1.294-1.312-3.21v-3.292c0-3.101-2.468-5.623-5.5-5.623s-5.5 2.522-5.5 5.623v3.292c0 1.861-1.306 3.203-1.318 3.216l-0.843 0.853h15.357l-0.884-0.859zM3.052 13.984c0.444-0.692 0.948-1.764 0.948-3.069v-3.292c0-2.549 2.019-4.623 4.5-4.623s4.5 2.074 4.5 4.623v3.292c0 1.32 0.495 2.383 0.938 3.069h-10.886zM9 2h-1v-1h1v1zM9 15h1c0 0.827-0.673 1.5-1.5 1.5s-1.5-0.673-1.5-1.5h1c0 0.276 0.225 0.5 0.5 0.5s0.5-0.224 0.5-0.5z" fill="#000000" />
</svg>

<svg xmlns="http://www.w3.org/2000/svg" width="17" height="17"><path d="M15.312 14.125c-.014-.013-1.312-1.294-1.312-3.21V7.623C14 4.522 11.532 2 8.5 2S3 4.522 3 7.623v3.292c0 1.861-1.306 3.203-1.318 3.216l-.843.853h15.357l-.884-.859zm-12.26-.141c.444-.692.948-1.764.948-3.069V7.623C4 5.074 6.019 3 8.5 3S13 5.074 13 7.623v3.292c0 1.32.495 2.383.938 3.069H3.052zM9 2H8V1h1v1zm0 13h1c0 .827-.673 1.5-1.5 1.5S7 15.827 7 15h1a.5.5 0 0 0 1 0z"/></svg>
